X:1
T:Title
%%score ( 1 2 ) { 3 | 4 }
L:1/8
Q:1/4=107
M:4/4
K:G
V:1 treble nm="Grand Piano, Soprano"
V:2 treble 
V:3 treble nm="Choir Pad, LIke Gentle Dew"
V:4 bass 
V:1
 [DG]2 [GB]2- [GB][DA] [DG]2 | [DG]2 [EG]2- [EG][DF] [CE]2 | [CE]2 D2 [DG]2 GF | %3
w: By~Robert~Lowry * * * *|||
 [DG][FA] [GB]2 [GB]2 [FA]2 | G2 [GB]2- [GB][Gc] [GB]2 | [FA]2 [EG]2- [EG][DF] [CE]2 | %6
w: |||
 [EG]2 AG [DF][CE] D2 | [DG]2 [GB]2- [GB][FA] G2- | G2 [GB]2 [GB]>[GB] [GB][DA] | %9
w: |||
 [DG][GB] [Fd]4 [Ac]2 | [FA]2 [GB]2 [GB]2 [GB][Bd] | [Ac][GB] A4 d2 | [Ac]2 [GB]2 [GB]2 [DB][CA] | %13
w: ||||
 [B,G][DF] [CE]4 [Ec]2 | c-[Dc][DB][Gd] [Gc][EA] [DG]2 | [DF]2 [DG]6- | [DG]2 z2 z4 |] %17
w: ||||
V:2
 x8 | x8 | z4 z2 D2 | x8 | x8 | x8 | z2 E2 z4 | x8 | x8 | x8 | x8 | z2 F6 | x8 | x8 | .E2 z2 z4 | %15
 x8 | x8 |] %17
V:3
 B,2 D2- DC B,2 | B,2 C2- C[K:bass]G, G,2 | G,2 G,2 B,2 B,A, | D2 D2 D2 D2 | B,2 D2- DE D2 | %5
 C2[K:bass] B,2- B,G, G,2 | G,2 G,2 G,2 G,2 | B,2[K:treble] D2- DC B,2- | B,2 D2 D>D DC | %9
 B,D C2 C2 C2 | C2 D2 D2 D2 | D2 D2 D2 D2 | D2 D2 D2[K:bass] G,2 | G,2 G,2 G,2 G,2 | %14
 G,A,G,B, ECB,B, | A,C B,6- | B,2 z2 z4 |] %17
V:4
 G,2 G,2- G,G, G,2 | G,2 C,2- C,C, C,2 | C,2 B,,2 G,,2 G,,2 | B,,D, G,2 G,2 D,2 | %4
 G,2 G,2- G,G, G,2 | D,2 E,2- E,B,, C,2 | C,2 C,2 C,2 B,,2 | G,,2 D,2- D,D, G,,2- | %8
 G,,2 G,2 G,>G, G,2 | G,2 D,2 D,2 D,2 | D,2 G,2 G,2 G,2 | F,G, D,2 D,2 D,2 | F,2 G,2 G,2 z2 | %13
 z2 C,2 C,2 C,D, | E,F, z2 C,2 D,D, | D,D, G,,6- | G,,2 z2 z4 |] %17

